src/Assets/FacilitiesThree.svg

<svg height="86" viewBox="0 0 86 86" width="86" xmlns="http://www.w3.org/2000/svg"><g fill="none" fill-rule="evenodd" transform="translate(-2 -1)"><path d="m45 1.000093c23.74821 0 43.00002 19.251679 43.00002 43.000083 0 23.747781-19.25181 43.000172-43.00002 43.000172-23.7483 0-43.00002-19.252391-43.00002-43.000172 0-23.748404 19.25172-43.000083 43.00002-43.000083z" fill="#f1f1f1"/><path d="m65.515405 37.21462c.323055.154632.484605.61982.484605 1.085722 0 .463828-.16155.774452-.484605 1.084362l-2.261565 2.17005c-.646155.619106-1.61532.619106-2.261565 0-4.03839-3.874912-9.692235-6.354872-15.992235-6.354872-6.300045 0-11.95389 2.47996-15.99228 6.354872-.646245.619106-1.615455.619106-2.261565 0l-2.261565-2.17005c-.323055-.30991-.484695-.620534-.484695-1.084362 0-.465902.16164-.775098.484695-1.085722 5.16924-5.115232 12.438405-8.215012 20.51541-8.215012 8.07696 0 15.184575 3.09978 20.515365 8.215012zm-20.515365 4.184142c4.52304 0 8.400015 1.706222 11.3076 4.496092.646245.61982.646245 1.54955 0 2.17005l-2.261565 2.16869c-.64602.6205-1.61532.6205-2.26143 0-1.77696-1.54887-4.200075-2.633878-6.784605-2.633878-2.58462 0-5.00769.93041-6.78465 2.633878-.64611.6205-1.61541.6205-2.261565 0l-2.26152-2.16937c-.646155-.61982-.646155-1.54955 0-2.16937 2.907675-2.78987 6.78465-4.496092 11.307735-4.496092zm0 12.401194c1.78425 0 3.230775 1.38737 3.230775 3.0991 0 1.712444-1.446525 3.100494-3.230775 3.100494-1.78434 0-3.23082-1.38805-3.23082-3.100494 0-1.71173 1.44648-3.0991 3.23082-3.0991z" fill="#880d1e"/></g></svg>

<?xml version="1.0" encoding="UTF-8"?>
<svg width="86px" height="86px" viewBox="0 0 86 86" version="1.1" xmlns="http://www.w3.org/2000/svg" xmlns:xlink="http://www.w3.org/1999/xlink">
    <!-- Generator: Sketch 53.2 (72643) - https://sketchapp.com -->
    <title>FacilitiesThree</title>
    <desc>Created with Sketch.</desc>
    <g id="HomePage" stroke="none" stroke-width="1" fill="none" fill-rule="evenodd">
        <g id="HomePage-Desktop-HD" transform="translate(-785.000000, -2559.000000)">
            <g id="Section-5-:-Facilities" transform="translate(0.000000, 2241.000000)">
                <g id="Group-6" transform="translate(742.000000, 317.000000)">
                    <g id="FacilitiesThree" transform="translate(41.000000, 0.000000)">
                        <path d="M45,1.000093 C68.74821,1.000093 88.00002,20.251772 88.00002,44.000176 C88.00002,67.747957 68.74821,87.000348 45,87.000348 C21.2517,87.000348 1.99998,67.747957 1.99998,44.000176 C1.99998,20.251772 21.2517,1.000093 45,1.000093 Z" id="elipse" fill="#F1F1F1"></path>
                        <path d="M65.515405,37.21462 C65.83846,37.369252 66.00001,37.83444 66.00001,38.300342 C66.00001,38.76417 65.83846,39.074794 65.515405,39.384704 L63.25384,41.554754 C62.607685,42.17386 61.63852,42.17386 60.992275,41.554754 C56.953885,37.679842 51.30004,35.199882 45.00004,35.199882 C38.699995,35.199882 33.04615,37.679842 29.00776,41.554754 C28.361515,42.17386 27.392305,42.17386 26.746195,41.554754 L24.48463,39.384704 C24.161575,39.074794 23.999935,38.76417 23.999935,38.300342 C23.999935,37.83444 24.161575,37.525244 24.48463,37.21462 C29.65387,32.099388 36.923035,28.999608 45.00004,28.999608 C53.077,28.999608 60.184615,32.099388 65.515405,37.21462 Z M45.00004,41.398762 C49.52308,41.398762 53.400055,43.104984 56.30764,45.894854 C56.953885,46.514674 56.953885,47.444404 56.30764,48.064904 L54.046075,50.233594 C53.400055,50.854094 52.430755,50.854094 51.784645,50.233594 C50.007685,48.684724 47.58457,47.599716 45.00004,47.599716 C42.41542,47.599716 39.99235,48.530126 38.21539,50.233594 C37.56928,50.854094 36.59998,50.854094 35.953825,50.233594 L33.692305,48.064224 C33.04615,47.444404 33.04615,46.514674 33.692305,45.894854 C36.59998,43.104984 40.476955,41.398762 45.00004,41.398762 Z M45.00004,53.799956 C46.78429,53.799956 48.230815,55.187326 48.230815,56.899056 C48.230815,58.6115 46.78429,59.99955 45.00004,59.99955 C43.2157,59.99955 41.76922,58.6115 41.76922,56.899056 C41.76922,55.187326 43.2157,53.799956 45.00004,53.799956 Z" id="Combined-shape-5678" fill="#880D1E"></path>
                    </g>
                </g>
            </g>
        </g>
    </g>
</svg>
